X: 3908
T: Blackberry Blossom, The
R: reel
M: 4/4
K: Gmajor
ge|dBAc BGGA|~B2BA Bdge|dBAc BG~G2|eaag ageg|
dBAc BG~G2|DBBA Bdge|dBAc BG~G2|eaag agef||
~g2gf gaba|~g2gb agef|~g2gf gabg|eaag agef|
~g2gf gaba|~g2gb ~a2ga|bgaf gfed|eaag a2||

